packages/gestalt-icons-android/vr-theme/ic_vr_text-spacing_gestalt.svg

<svg width="24" height="24" viewBox="0 0 24 24" fill="none" xmlns="http://www.w3.org/2000/svg">
<path fill-rule="evenodd" clip-rule="evenodd" d="M3.06838 12.9996L4.03738 10.2626H8.95038L9.91938 12.9996H12.5034L7.86238 1.01465H5.12538L0.484375 12.9996H3.06838ZM4.80238 8.13765L6.48538 3.41165L8.18538 8.13765H4.80238Z" fill="black"/>
<path fill-rule="evenodd" clip-rule="evenodd" d="M20.1586 6.65865V6.60765C21.6036 6.38665 22.3516 5.36665 22.3516 3.87065C22.3516 2.05165 20.8896 1.01465 18.7476 1.01465H13.9706V12.9996H18.6456C21.3996 12.9996 22.9976 11.6396 22.9976 9.53165C22.9976 7.83165 21.8586 6.77765 20.1586 6.65865ZM18.2546 3.12265C19.2916 3.12265 19.8866 3.59865 19.8866 4.44865C19.8866 5.29865 19.2406 5.82565 18.2376 5.82565H16.3506V3.12265H18.2546ZM18.6286 10.8916H16.3506V7.83165H18.7136C19.8696 7.83165 20.5326 8.35865 20.5326 9.29365C20.5326 10.3306 19.8186 10.8916 18.6286 10.8916Z" fill="black"/>
<path d="M4.41425 19.9997L5.70714 21.2926L4.29293 22.7068L0.58582 18.9997L4.29292 15.2926L5.70714 16.7068L4.41424 17.9997L19.5858 17.9997L18.2929 16.7068L19.7071 15.2926L23.4142 18.9997L19.7071 22.7068L18.2929 21.2926L19.5858 19.9997L4.41425 19.9997Z" fill="black"/>
</svg>

<svg xmlns="http://www.w3.org/2000/svg" width="24" height="24"><path d="m3.07 13 .97-2.74h4.91L9.92 13h2.58L7.86 1.01H5.13L.48 13zM4.8 8.14 6.5 3.4l1.7 4.73zm15.36-1.48V6.6c1.44-.22 2.2-1.24 2.2-2.74 0-1.82-1.47-2.86-3.61-2.86h-4.78v12h4.68C21.4 13 23 11.64 23 9.53c0-1.7-1.14-2.75-2.84-2.87m-1.9-3.54c1.03 0 1.63.48 1.63 1.33s-.65 1.38-1.65 1.38h-1.89v-2.7zm.37 7.77h-2.28V7.83h2.36c1.16 0 1.82.53 1.82 1.46 0 1.04-.71 1.6-1.9 1.6m.96 9.11-1.3 1.3 1.42 1.4 3.7-3.7-3.7-3.7-1.42 1.4 1.3 1.3H4.4l1.3-1.3-1.42-1.4L.6 19l3.7 3.7 1.42-1.4L4.4 20z"/></svg>
